icons/lines/brifecase-timer.svg

<svg xmlns="http://www.w3.org/2000/svg" width="24" height="24" viewBox="0 0 24 24" fill="none" stroke="currentColor" stroke-width="2" stroke-linecap="round" stroke-linejoin="round" >
  <path d="M12 18.2C14.2091 18.2 16 16.4092 16 14.2C16 11.9909 14.2091 10.2 12 10.2C9.79086 10.2 8 11.9909 8 14.2C8 16.4092 9.79086 18.2 12 18.2Z" stroke-miterlimit="10"/>
  <path d="M12.25 12.95V13.88C12.25 14.23 12.07 14.56 11.76 14.74L11 15.2" stroke-miterlimit="10"/>
  <path d="M7.99983 22H15.9998C20.0198 22 20.7398 20.39 20.9498 18.43L21.6998 10.43C21.9698 7.99 21.2698 6 16.9998 6H6.99983C2.72983 6 2.02983 7.99 2.29983 10.43L3.04983 18.43C3.25983 20.39 3.97983 22 7.99983 22Z" stroke-miterlimit="10"/>
  <path d="M8 6V5.2C8 3.43 8 2 11.2 2H12.8C16 2 16 3.43 16 5.2V6" stroke-miterlimit="10"/>
  <path d="M21.6498 11C19.9198 12.26 17.9998 13.14 16.0098 13.64" stroke-miterlimit="10"/>
  <path d="M2.62012 11.27C4.29012 12.41 6.11012 13.22 8.00012 13.68" stroke-miterlimit="10"/>
  </svg>

<svg xmlns="http://www.w3.org/2000/svg" width="24" height="24" viewBox="0 0 24 24" fill="none" stroke="currentColor" stroke-width="2" stroke-linecap="round" stroke-linejoin="round">
  <path d="M12.25 12.95v.93a1 1 0 0 1-.49.86l-.76.46" />
  <path d="M16 22c4.02 0 4.74-1.61 4.95-3.57l.75-8C21.97 7.99 21.27 6 17 6H7c-4.27 0-4.97 1.99-4.7 4.43l.75 8C3.26 20.39 3.98 22 8 22z" />
  <path d="M2.62 11.27A16.4 16.4 0 0 0 8 13.68" />
  <path d="M21.65 11a16.3 16.3 0 0 1-5.64 2.64" />
  <path d="M8 6v-.8C8 3.43 8 2 11.2 2h1.6C16 2 16 3.43 16 5.2V6" />
  <circle cx="12" cy="14.2" r="4" />
</svg>
